packages/core/src/svgs/tokens/branded/FUND.svg

<svg width="24" height="24" viewBox="0 0 24 24" fill="none" xmlns="http://www.w3.org/2000/svg">
<path d="M4.87669 3.85666H17.6165L20.4944 9.6131L13.967 18.9369H10.0341L3.50742 9.6131L5.78151 5.06309H16.7116L18.9857 9.61183L13.3656 17.7305H10.6368L5.01543 9.61183L6.68633 6.2695H15.8068L17.4777 9.61071L12.7624 16.524H11.2375L6.52345 9.61071L7.59174 7.47591H14.9015L15.9679 9.60888L12.0006 15.5589L8.03329 9.60831L8.49595 8.68233H13.996L14.4611 9.6131L11.9854 13.1497L9.94853 9.88869H12.3021V10.4919H11.0367L12.0144 12.0566L13.7614 9.56116L13.6238 9.28558H8.86934L8.72939 9.56539L12.0006 14.4732L15.2718 9.56609L14.5281 8.07912H7.96452L7.22258 9.56356L11.556 15.9209H12.444L16.7779 9.56356L15.4335 6.87271H7.05971L5.71456 9.56243L10.9522 17.1273H13.0489L18.2861 9.56243L16.3377 5.66629H6.15549L4.20774 9.56116L10.3478 18.3336H13.6533L19.794 9.56116L17.2424 4.45988H5.25069L2.69851 9.56426L9.44606 19.5401H14.5552L21.3033 9.56426L18.6672 4.29339L19.2071 4.02315L22 9.61L14.8754 20.1434H9.12684L2 9.61L4.87669 3.85666Z" fill="url(#paint0_linear_364_8411)"/>
<defs>
<linearGradient id="paint0_linear_364_8411" x1="22" y1="8.94623" x2="3.84452" y2="20.0937" gradientUnits="userSpaceOnUse">
<stop stop-color="#3F59A1"/>
<stop offset="1" stop-color="#3B8DCE"/>
</linearGradient>
</defs>
</svg>

<svg xmlns="http://www.w3.org/2000/svg" width="24" height="24" fill="none" viewBox="0 0 24 24">
    <path fill="url(#FUND__a)" d="M4.877 3.857h12.74l2.877 5.756-6.527 9.324h-3.933L3.507 9.613l2.275-4.55h10.93l2.274 4.549-5.62 8.118h-2.73l-5.62-8.118 1.67-3.343h9.12l1.672 3.342-4.716 6.913h-1.524L6.523 9.611l1.069-2.135h7.31l1.066 2.133L12 15.559l-3.968-5.95.463-.927h5.5l.465.931-2.476 3.537L9.95 9.889h2.353v.603h-1.265l.977 1.565 1.747-2.496-.137-.275H8.869l-.14.28 3.272 4.907 3.27-4.907-.743-1.487H7.965l-.742 1.485 4.333 6.357h.888l4.334-6.357-1.344-2.691H7.06l-1.345 2.69 5.237 7.564h2.097l5.237-7.565-1.948-3.896H6.155L4.208 9.561l6.14 8.773h3.305l6.141-8.773-2.552-5.101H5.251L2.699 9.564l6.747 9.976h5.11l6.747-9.976-2.636-5.27.54-.27L22 9.61l-7.125 10.533H9.127L2 9.61z"/>
    <defs>
        <linearGradient id="FUND__a" x1="22" x2="3.845" y1="8.946" y2="20.094" gradientUnits="userSpaceOnUse">
            <stop stop-color="#3F59A1"/>
            <stop offset="1" stop-color="#3B8DCE"/>
        </linearGradient>
    </defs>
</svg>
